src/dsmComponents/Icons/car-collision-16px.svg

<?xml version="1.0" encoding="UTF-8"?>
<svg width="16px" height="9px" viewBox="0 0 16 9" version="1.1" xmlns="http://www.w3.org/2000/svg" xmlns:xlink="http://www.w3.org/1999/xlink">
    <!-- Generator: Sketch 59.1 (86144) - https://sketch.com -->
    <title>car-collision-16px</title>
    <desc>Created with Sketch.</desc>
    <defs>
        <path d="M7.177,6.8435514 C6.87,6.8435514 6.622,6.5935514 6.622,6.2835514 C6.622,5.9745514 6.87,5.7245514 7.177,5.7245514 C7.484,5.7245514 7.733,5.9745514 7.733,6.2835514 C7.733,6.5935514 7.484,6.8435514 7.177,6.8435514 M2.04,6.8435514 C1.735,6.8435514 1.486,6.5935514 1.486,6.2835514 C1.486,5.9745514 1.735,5.7245514 2.04,5.7245514 C2.347,5.7245514 2.596,5.9745514 2.596,6.2835514 C2.596,6.5935514 2.347,6.8435514 2.04,6.8435514 M1.511,4.4965514 L2.198,2.8605514 C2.276,2.6775514 2.504,2.5275514 2.707,2.5275514 L6.511,2.5275514 C6.713,2.5275514 6.943,2.6775514 7.02,2.8605514 L7.707,4.4965514 C7.726,4.5425514 7.734,4.5855514 7.732,4.6255514 C7.73,4.6655514 7.718,4.7015514 7.698,4.7315514 C7.656,4.7925514 7.579,4.8295514 7.478,4.8295514 L7,4.8295514 L1.74,4.8295514 C1.537,4.8295514 1.435,4.6795514 1.511,4.4965514 M13.1227,7.7738514 L14.5847,8.2038514 L14.4847,8.5518514 C14.4137,8.7978514 14.1577,8.9388514 13.9137,8.8678514 L13.9137,8.8678514 L13.3357,8.6978514 C13.0917,8.6258514 12.9517,8.3678514 13.0227,8.1218514 L13.0227,8.1218514 L13.1227,7.7738514 Z M8.7205,8.0474514 L8.7205,8.4094514 C8.7205,8.6654514 8.5135,8.8734514 8.2605,8.8734514 L8.2605,8.8734514 L7.6585,8.8734514 C7.4045,8.8734514 7.1975,8.6654514 7.1975,8.4094514 L7.1975,8.4094514 L7.1975,8.0474514 L8.7205,8.0474514 Z M2.0194,8.0474514 L2.0194,8.4094514 C2.0194,8.6654514 1.8134,8.8734514 1.5594,8.8734514 L1.5594,8.8734514 L0.9574,8.8734514 C0.7034,8.8734514 0.4964,8.6654514 0.4964,8.4094514 L0.4964,8.4094514 L0.4964,8.0474514 L2.0194,8.0474514 Z M9.2833,1.0304514 C9.4943,0.762451404 9.9313,0.623451404 10.2573,0.719451404 L10.2573,0.719451404 L14.3393,1.9174514 C14.6653,2.0134514 14.9593,2.3674514 14.9943,2.7074514 L14.9943,2.7074514 L15.1213,3.9064514 L15.1863,4.5224514 L15.7183,4.6794514 C15.9263,4.7404514 16.0453,4.9584514 15.9843,5.1684514 C15.9243,5.3774514 15.7073,5.4974514 15.4993,5.4364514 L15.4993,5.4364514 L15.2613,5.3664514 C15.2623,5.6634514 15.2213,6.0234514 15.1513,6.2634514 L15.1513,6.2634514 L14.6903,7.8604514 L13.2283,7.4304514 L9.0713,6.2094514 L9.0713,6.0264514 C9.0713,5.8664514 9.0503,5.6674514 9.0133,5.4634514 C9.3313,5.3794514 9.5663,5.0874514 9.5663,4.7404514 C9.5663,4.3274514 9.2343,3.9924514 8.8253,3.9924514 L8.8253,3.9924514 L8.5063,3.9924514 L8.3613,3.6384514 L7.9073,2.5224514 C7.8833,2.4624514 7.8403,2.4104514 7.8053,2.3554514 L7.8053,2.3554514 L8.1543,2.4574514 L8.5383,1.9714514 Z M6.736,2.0835514 C7.005,2.0835514 7.295,2.2485514 7.47,2.4745514 C7.517,2.5315514 7.557,2.5915514 7.583,2.6565514 L7.583,2.6565514 L8.037,3.7725514 L8.24,4.2695514 L8.24,4.2705514 L8.272,4.3455514 L8.825,4.3455514 C9.041,4.3455514 9.216,4.5225514 9.216,4.7395514 C9.216,4.9575514 9.041,5.1345514 8.825,5.1345514 L8.825,5.1345514 L8.576,5.1345514 L8.576,5.1345514 L8.586,5.1705514 C8.625,5.3105514 8.658,5.4625514 8.683,5.6115514 C8.683,5.6135514 8.683,5.6145514 8.684,5.6175514 C8.706,5.7645514 8.721,5.9075514 8.721,6.0265514 L8.721,6.0265514 L8.721,7.6905514 L7.198,7.6905514 L7.198,7.6895514 L2.02,7.6895514 L2.02,7.6905514 L0.496,7.6905514 L0.496,6.0265514 C0.496,5.7775514 0.558,5.4205514 0.641,5.1345514 L0.641,5.1345514 L0.392,5.1345514 C0.175,5.1345514 0,4.9575514 0,4.7395514 C0,4.5225514 0.175,4.3455514 0.392,4.3455514 L0.392,4.3455514 L0.947,4.3455514 L1.181,3.7705514 L1.635,2.6565514 C1.763,2.3405514 2.144,2.0835514 2.483,2.0835514 L2.483,2.0835514 Z M13.7533,5.5384514 C13.4593,5.4514514 13.1513,5.6224514 13.0653,5.9184514 C12.9793,6.2154514 13.1483,6.5264514 13.4423,6.6124514 C13.7373,6.6994514 14.0453,6.5284514 14.1313,6.2314514 C14.2173,5.9344514 14.0483,5.6244514 13.7533,5.5384514 Z M10.3493,1.2084514 C10.1543,1.1514514 9.8933,1.2304514 9.7683,1.3844514 L9.7683,1.3844514 L8.6543,2.7614514 C8.5293,2.9154514 8.5873,3.0884514 8.7813,3.1454514 L8.7813,3.1454514 L14.2903,4.7634514 C14.4853,4.8204514 14.6263,4.7054514 14.6023,4.5084514 L14.6023,4.5084514 L14.3963,2.7434514 C14.3733,2.5464514 14.1953,2.3374514 14.0013,2.2804514 L14.0013,2.2804514 Z M6.71595,0.235151404 L6.7387,0.242151404 C6.7537,0.250151404 6.7677,0.266151404 6.7757,0.283151404 L6.7757,0.283151404 L7.0067,0.792151404 L7.2597,0.609151404 C7.2727,0.600151404 7.2917,0.602151404 7.3087,0.615151404 C7.3267,0.628151404 7.3397,0.649151404 7.3437,0.670151404 L7.3437,0.670151404 L7.6127,2.0281514 C7.6157,2.0471514 7.6117,2.0621514 7.6007,2.0691514 C7.5967,2.0721514 7.5917,2.0741514 7.5857,2.0741514 C7.5657,2.0761514 7.5417,2.0601514 7.5267,2.0351514 L7.5267,2.0351514 L7.0817,1.2811514 L6.8547,1.4451514 C6.8447,1.4531514 6.8307,1.4521514 6.8147,1.4441514 C6.7987,1.4361514 6.7857,1.4211514 6.7777,1.4041514 L6.7777,1.4041514 L6.3617,0.541151404 C6.3497,0.515151404 6.3517,0.490151404 6.3667,0.480151404 L6.3667,0.480151404 L6.6977,0.240151404 C6.7077,0.233151404 6.7227,0.233151404 6.7387,0.242151404 Z M8.0418,0.000151404165 L8.4468,0.0431514042 C8.4588,0.0441514042 8.4708,0.0541514042 8.4768,0.0711514042 C8.4828,0.0881514042 8.4828,0.109151404 8.4768,0.127151404 L8.4768,0.127151404 L8.3148,0.662151404 L8.6248,0.695151404 C8.6398,0.696151404 8.6528,0.711151404 8.6578,0.732151404 C8.6618,0.754151404 8.6588,0.778151404 8.6478,0.797151404 L8.6478,0.797151404 L7.9528,1.9911514 C7.9428,2.0071514 7.9288,2.0161514 7.9168,2.0151514 C7.9118,2.0141514 7.9068,2.0121514 7.9018,2.0091514 C7.8858,1.9961514 7.8778,1.9681514 7.8828,1.9401514 L7.8828,1.9401514 L8.0478,1.0781514 L7.7708,1.0491514 C7.7578,1.0481514 7.7478,1.0371514 7.7408,1.0211514 C7.7348,1.0051514 7.7348,0.985151404 7.7398,0.966151404 L7.7398,0.966151404 L7.9988,0.0431514042 C8.0058,0.0161514042 8.0238,-0.00184859583 8.0418,0.000151404165 L8.0418,0.000151404165 Z" id="path-1"></path>
    </defs>
    <g id="Final" stroke="none" stroke-width="1" fill="none" fill-rule="evenodd">
        <g id="All-Nucleo-Icons" transform="translate(-319.000000, -932.000000)">
            <g id="Solo/Nucleo/16px/car-collision" transform="translate(315.000000, 924.000000)">
                <g id="collision" transform="translate(4.000000, 7.000000)">
                    <g id="Group-15" transform="translate(0.000000, 0.698820)">
                        <g id="Colour/Default-Colour" transform="translate(0.000000, 0.301180)">
                            <g>
                                <mask id="mask-2" fill="white">
                                    <use xlink:href="#path-1"></use>
                                </mask>
                                <use id="Mask" fill="#000000" xlink:href="#path-1"></use>
                                <g id="colour/neutral/chia" mask="url(#mask-2)" fill="#737373">
                                    <g transform="translate(-24.000000, -28.000000)" id="Colour">
                                        <rect x="0" y="0" width="64" height="64"></rect>
                                    </g>
                                </g>
                            </g>
                        </g>
                    </g>
                </g>
            </g>
        </g>
    </g>
</svg>

<svg width="16" height="9" xmlns="http://www.w3.org/2000/svg" xmlns:xlink="http://www.w3.org/1999/xlink"><defs><path d="M7.177 6.844a.557.557 0 01-.555-.56.557.557 0 111.111 0c0 .31-.249.56-.556.56m-5.137 0a.557.557 0 01-.554-.56c0-.31.249-.56.554-.56.307 0 .556.25.556.56 0 .31-.249.56-.556.56m-.529-2.347l.687-1.636a.598.598 0 01.509-.333h3.804c.202 0 .432.15.509.333l.687 1.636a.298.298 0 01.025.129.208.208 0 01-.034.106c-.042.06-.119.098-.22.098H1.74c-.203 0-.305-.15-.229-.333m11.612 3.277l1.462.43-.1.348a.46.46 0 01-.571.316l-.578-.17a.466.466 0 01-.313-.576l.1-.348zm-4.402.273v.362a.463.463 0 01-.46.464h-.602a.463.463 0 01-.462-.464v-.362H8.72zm-6.702 0v.362a.462.462 0 01-.46.464H.957a.463.463 0 01-.46-.464v-.362h1.522zM9.283 1.03c.211-.268.648-.407.974-.31l4.082 1.197c.326.096.62.45.655.79l.127 1.2.065.615.532.157a.394.394 0 01.266.49.39.39 0 01-.485.267l-.238-.07c.001.297-.04.657-.11.897l-.46 1.597-1.463-.43-4.157-1.22v-.184a3.3 3.3 0 00-.058-.563.747.747 0 00.553-.723.745.745 0 00-.74-.748h-.32l-.145-.354-.454-1.116c-.024-.06-.067-.112-.102-.167l.35.102.383-.486zM6.736 2.084c.269 0 .559.165.734.39a.697.697 0 01.113.183l.454 1.116.203.497.032.076h.553c.216 0 .391.177.391.394a.393.393 0 01-.391.395h-.249l.01.036a4.357 4.357 0 01.098.447c.022.147.037.29.037.409V7.69H.496V6.028c0-.25.062-.606.145-.892H.392A.393.393 0 010 4.74c0-.217.175-.394.392-.394h.555l.234-.575.454-1.114c.128-.316.509-.573.848-.573zm7.017 3.454a.56.56 0 00-.311 1.074.555.555 0 00.69-.38.559.559 0 00-.379-.694zm-3.404-4.33a.594.594 0 00-.58.176L8.653 2.761c-.125.154-.067.327.127.384l5.51 1.618c.194.057.335-.058.311-.255l-.206-1.765A.6.6 0 0014 2.28zM6.716.235l.023.007a.093.093 0 01.037.041l.23.51.254-.184c.013-.009.032-.007.049.006a.091.091 0 01.035.055l.269 1.358c.003.02-.001.034-.012.041a.025.025 0 01-.015.005c-.02.002-.044-.014-.06-.039l-.444-.754-.227.164c-.01.008-.024.007-.04 0a.085.085 0 01-.037-.04L6.362.54c-.012-.026-.01-.05.005-.06l.33-.24c.01-.008.026-.008.042.001zM8.042 0l.405.043c.012.001.024.011.03.028a.09.09 0 010 .056l-.162.535.31.033c.015.001.028.016.033.037a.097.097 0 01-.01.065l-.695 1.194c-.01.016-.024.025-.036.024a.047.047 0 01-.015-.006c-.016-.013-.024-.04-.02-.069l.166-.862-.277-.029c-.013 0-.023-.012-.03-.028A.093.093 0 017.74.966l.259-.923c.007-.027.025-.045.043-.043z" id="car-collision-16px_svg__a"/></defs><use fill="#737373" xlink:href="#car-collision-16px_svg__a" fill-rule="evenodd"/></svg>
